app/src/logo.svg

<svg height="48" viewBox="0 0 172 48" width="172" xmlns="http://www.w3.org/2000/svg"><g fill="none" fill-rule="evenodd"><rect fill="#fff" height="48" rx="6" width="48"/><g fill-rule="nonzero"><path d="m2.82925385 15.1278582v-2.1505225h7.42679135c1.1788558 0 2.2471938-.230847 3.2050141-.6925411.9578204-.4616941 1.7314445-1.0995609 2.3208723-1.9136005.1818812-.2511902.1796692-.1744393.4614583-.78654125.281789-.61210192.4226836-1.27938462.4226836-2.00184809 0-1.60377948-.6704742-2.90988776-2.0114227-3.91832486-1.3409484-1.0084371-3.0576571-1.51265565-5.15012614-1.51265565-2.26767387-.00022631-3.96842927-.00039605-5.1022662-.00050921l-1.20989249-2.15131504 6.31215869.00130177c1.94511204-.02429969 3.66918864.29159627 5.17222974.94768787 1.5030411.65609161 2.674529 1.5551801 3.5144637 2.69726549.8399348 1.14208539 1.2599021 2.4542686 1.2599021 3.93654963 0 1.03313872-.2330744 1.98696753-.6992232 2.86148644-.4661488.8745189-.4227876.7058203-.6933001 1.0386137-.928349 1.1420853-2.1882511 2.0350989-3.7797064 2.6790407-1.5914553.6439417-3.3744746.9659126-5.34905803.9659126zm-2.82925385 10.4245666v-22.157297l2.84994662 1.82806995-.02069277 20.32922705zm17.1933178-1.5418559-6.5096041-8.9967976 2.0728054-.6393692c1.389365 1.7910815 2.4984875 3.2695993 3.3273676 4.4355534.8288801 1.165954 2.0032171 2.8994919 3.523011 5.2006134z" fill="#1e2c6d" transform="translate(15.3852 11.3684)"/><g transform="translate(13.8947 13.5004)"><path d="m7.90315997 21.878599v-3.0530209c.88488909 0 1.70746597-.1730133 2.46773063-.51904.7602647-.3460266 1.4263655-.8288784 1.9983027-1.4485553.5719371-.6196769 1.0168157-1.3426334 1.3346358-2.1688693s.4767302-1.7182418.4767302-2.6760177c0-.957776-.1589101-1.8497819-.4767302-2.67601777-.3178201-.8262359-.7626987-1.54919231-1.3346358-2.16886923-.5719372-.61967693-1.238038-1.10252872-1.9983027-1.44855537-.76026466-.34602665-1.58284154-.51903998-2.46773063-.51903998v-3.05302092c1.84516484 0 3.47675733.42016474 4.89477753 1.26049421 1.4180201.84032948 2.5289996 2.00150802 3.3329385 3.48353563.8039388 1.48202761 1.2059083 3.18918543 1.2059083 5.12147343 0 1.9167263-.402804 3.6173512-1.2084119 5.1018745-.805608 1.4845234-1.9168656 2.6495923-3.3337731 3.4952069-1.4169074.8456146-3.04738721 1.2684218-4.89143933 1.2684218zm-3.87225908 0v-3.0530209h3.87225908v3.0530209zm-1.99621633 0v-19.73100647h3.09864181v19.73100647zm1.99621633-16.67798555v-3.05302092h3.87225908v3.05302092z" fill="#1e2c6d"/><path d="m9.93784455 0-.00095376.15838495.39097961.06785425c1.0865743.21141902 2.1089722.57138245 3.0620018 1.0814334l.4041791.22778679c1.7384167 1.03019891 3.1155593 2.469567 4.1025639 4.28906853.9862226 1.81806005 1.4748536 3.89326855 1.4748536 6.18856788 0 2.280699-.4900281 4.3495813-1.4775279 6.1692835-.9875907 1.8198698-2.3629599 3.2618394-4.0978796 4.2972447-1.114075.6648832-2.3284102 1.1140593-3.6339914 1.3500928l-.22517911.0354053.00095376.1610695h-9.93784455v-24.0261916zm-2.03468457 2.14759254h-5.8684754v19.73100646h5.8684754c1.84405211 0 3.47453192-.4228072 4.89143932-1.2684218 1.4169075-.8456146 2.5281651-2.0106835 3.3337731-3.4952069.8056079-1.4845233 1.2084119-3.1851482 1.2084119-5.1018745 0-1.932288-.4019695-3.63944582-1.2059083-5.12147343-.8039389-1.4820276-1.9149184-2.64320614-3.3329385-3.48353562-1.4180202-.84032947-3.04961269-1.26049421-4.89477752-1.26049421zm0 3.05302092c.88488909 0 1.70746596.17301333 2.46773062.51903998.7602647.34602665 1.4263656.82887844 1.9983027 1.44855536.5719371.61967693 1.0168157 1.34263334 1.3346358 2.16886923.3178201.82623587.4767302 1.71824177.4767302 2.67601777 0 .9577759-.1589101 1.8497818-.4767302 2.6760177s-.7626987 1.5491924-1.3346358 2.1688693-1.238038 1.1025287-1.9983027 1.4485553c-.76026466.3460267-1.58284153.51904-2.46773062.51904l-2.77066814-.0005872v-13.62513245zm0 2.14759254-.73598356-.00075501v9.32994731l.73598356.0005873c.61240029 0 1.16073469-.1153317 1.66206444-.3435068.51637968-.2350249.96089188-.5572486 1.34653478-.9750813.3869271-.419224.6872189-.9072176.9068421-1.4781712.2172397-.5647575.3272734-1.1824067.3272734-1.8681305s-.1100337-1.3033731-.3272734-1.8681305c-.2196232-.57095364-.519915-1.0589472-.9068421-1.47817123-.3856429-.41783267-1.02388005-.86772419-1.34653478-.97508132-.32265472-.10735712-1.04966415-.34350675-1.66206444-.34350675z" fill="#fff"/></g></g><text fill="#fff" font-family="Figtree-Light, Figtree" font-size="22" font-weight="300" letter-spacing=".8"><tspan x="61.324635" y="33">do</tspan> <tspan font-family="Figtree-Light_Regular, Figtree" font-weight="normal" x="88.466635" y="33">Riskless</tspan></text></g></svg>

<?xml version="1.0" encoding="UTF-8"?>
<svg width="172px" height="48px" viewBox="0 0 172 48" version="1.1" xmlns="http://www.w3.org/2000/svg" xmlns:xlink="https://www.w3.org/1999/xlink">
    <title>Group 11</title>
    <g id="Page-1" stroke="none" stroke-width="1" fill="none" fill-rule="evenodd">
        <g id="Medium-Rectangle" transform="translate(-103, -106)">
            <g id="Group-7" transform="translate(8, 36)">
                <g id="Group-8" transform="translate(95, 0)">
                    <g id="Group-11" transform="translate(0, 70)">
                        <g id="Group-4">
                            <rect id="Rectangle" fill="#FFFFFF" x="0" y="0" width="48" height="48" rx="6"></rect>
                            <g id="Group-3" transform="translate(13.8947, 11.3684)" fill-rule="nonzero">
                                <g id="Group">
                                    <g id="Group-2" transform="translate(1.4905, 0)" fill="#1E2C6D">
                                        <path d="M2.82925385,15.1278582 L2.82925385,12.9773357 L10.2560452,12.9773357 C11.434901,12.9773357 12.503239,12.7464887 13.4610593,12.2847946 C14.4188797,11.8231005 15.1925038,11.1852337 15.7819316,10.3711941 C15.9638128,10.1200039 15.9616008,10.1967548 16.2433899,9.58465285 C16.5251789,8.97255093 16.6660735,8.30526823 16.6660735,7.58280476 C16.6660735,5.97902528 15.9955993,4.672917 14.6546508,3.6644799 C13.3137024,2.6560428 11.5969937,2.15182425 9.50452466,2.15182425 C7.23685079,2.15159794 5.53609539,2.1514282 4.40225846,2.15131504 L3.19236597,0 L9.50452466,0.00130176906 C11.4496367,-0.02299792 13.1737133,0.292898038 14.6767544,0.948989643 C16.1797955,1.60508125 17.3512834,2.50416974 18.1912181,3.64625513 C19.0311529,4.78834052 19.4511202,6.10052373 19.4511202,7.58280476 C19.4511202,8.61594348 19.2180458,9.56977229 18.751897,10.4442912 C18.2857482,11.3188101 18.3291094,11.1501115 18.0585969,11.4829049 C17.1302479,12.6249902 15.8703458,13.5180038 14.2788905,14.1619456 C12.6874352,14.8058873 10.9044159,15.1278582 8.92983247,15.1278582 L2.82925385,15.1278582 Z M0,25.5524248 L0,3.3951278 L2.84994662,5.22319775 L2.82925385,25.5524248 L0,25.5524248 Z M17.1933178,24.0105689 L10.6837137,15.0137713 L12.7565191,14.3744021 C14.1458841,16.1654836 15.2550066,17.6440014 16.0838867,18.8099555 C16.9127668,19.9759095 18.0871038,21.7094474 19.6068977,24.0105689 L17.1933178,24.0105689 Z" id="Shape"></path>
                                    </g>
                                    <g id="D" transform="translate(0, 2.132)">
                                        <path d="M7.90315997,21.878599 L7.90315997,18.8255781 C8.78804906,18.8255781 9.61062594,18.6525648 10.3708906,18.3065381 C11.1311553,17.9605115 11.7972561,17.4776597 12.3691933,16.8579828 C12.9411304,16.2383059 13.386009,15.5153494 13.7038291,14.6891135 C14.0216492,13.8628776 14.1805593,12.9708717 14.1805593,12.0130958 C14.1805593,11.0553198 14.0216492,10.1633139 13.7038291,9.33707803 C13.386009,8.51084213 12.9411304,7.78788572 12.3691933,7.1682088 C11.7972561,6.54853187 11.1311553,6.06568008 10.3708906,5.71965343 C9.61062594,5.37362678 8.78804906,5.20061345 7.90315997,5.20061345 L7.90315997,2.14759253 C9.74832481,2.14759253 11.3799173,2.56775727 12.7979375,3.40808674 C14.2159576,4.24841622 15.3269371,5.40959476 16.130876,6.89162237 C16.9348148,8.37364998 17.3367843,10.0808078 17.3367843,12.0130958 C17.3367843,13.9298221 16.9339803,15.630447 16.1283724,17.1149703 C15.3227644,18.5994937 14.2115068,19.7645626 12.7945993,20.6101772 C11.3776919,21.4557918 9.74721209,21.878599 7.90315997,21.878599 Z M4.03090089,21.878599 L4.03090089,18.8255781 L7.90315997,18.8255781 L7.90315997,21.878599 L4.03090089,21.878599 Z M2.03468456,21.878599 L2.03468456,2.14759253 L5.13332637,2.14759253 L5.13332637,21.878599 L2.03468456,21.878599 Z M4.03090089,5.20061345 L4.03090089,2.14759253 L7.90315997,2.14759253 L7.90315997,5.20061345 L4.03090089,5.20061345 Z" id="Shape" fill="#1E2C6D"></path>
                                        <path d="M9.93784455,0 L9.93689079,0.15838495 L10.3278704,0.226239199 C11.4144447,0.437658216 12.4368426,0.797621651 13.3898722,1.3076726 L13.7940513,1.53545939 C15.532468,2.5656583 16.9096106,4.00502639 17.8966152,5.82452792 C18.8828378,7.64258797 19.3714688,9.71779647 19.3714688,12.0130958 C19.3714688,14.2937948 18.8814407,16.3626771 17.8939409,18.1823793 C16.9063502,20.0022491 15.530981,21.4442187 13.7960613,22.479624 C12.6819863,23.1445072 11.4676511,23.5936833 10.1620699,23.8297168 L9.93689079,23.8651221 L9.93784455,24.0261916 L0,24.0261916 L0,0 L9.93784455,0 Z M7.90315998,2.14759254 L2.03468458,2.14759254 L2.03468458,21.878599 L7.90315998,21.878599 C9.74721209,21.878599 11.3776919,21.4557918 12.7945993,20.6101772 C14.2115068,19.7645626 15.3227644,18.5994937 16.1283724,17.1149703 C16.9339803,15.630447 17.3367843,13.9298221 17.3367843,12.0130958 C17.3367843,10.0808078 16.9348148,8.37364998 16.130876,6.89162237 C15.3269371,5.40959477 14.2159576,4.24841623 12.7979375,3.40808675 C11.3799173,2.56775728 9.74832481,2.14759254 7.90315998,2.14759254 Z M7.90315998,5.20061346 C8.78804907,5.20061346 9.61062594,5.37362679 10.3708906,5.71965344 C11.1311553,6.06568009 11.7972562,6.54853188 12.3691933,7.1682088 C12.9411304,7.78788573 13.386009,8.51084214 13.7038291,9.33707803 C14.0216492,10.1633139 14.1805593,11.0553198 14.1805593,12.0130958 C14.1805593,12.9708717 14.0216492,13.8628776 13.7038291,14.6891135 C13.386009,15.5153494 12.9411304,16.2383059 12.3691933,16.8579828 C11.7972562,17.4776597 11.1311553,17.9605115 10.3708906,18.3065381 C9.61062594,18.6525648 8.78804907,18.8255781 7.90315998,18.8255781 L5.13249184,18.8249909 L5.13249184,5.19985845 L7.90315998,5.20061346 Z M7.90315998,7.348206 L7.16717642,7.34745099 L7.16717642,16.6773983 L7.90315998,16.6779856 C8.51556027,16.6779856 9.06389467,16.5626539 9.56522442,16.3344788 C10.0816041,16.0994539 10.5261163,15.7772302 10.9117592,15.3593975 C11.2986863,14.9401735 11.5989781,14.4521799 11.8186013,13.8812263 C12.035841,13.3164688 12.1458747,12.6988196 12.1458747,12.0130958 C12.1458747,11.327372 12.035841,10.7097227 11.8186013,10.1449653 C11.5989781,9.57401166 11.2986863,9.0860181 10.9117592,8.66679407 C10.5261163,8.2489614 9.88787915,7.79906988 9.56522442,7.69171275 C9.2425697,7.58435563 8.51556027,7.348206 7.90315998,7.348206 Z" id="Shape" fill="#FFFFFF"></path>
                                    </g>
                                </g>
                            </g>
                        </g>
                        <text id="vesple" font-family="Figtree-Light, Figtree" font-size="22" font-weight="300" letter-spacing="0.8" fill="#FFFFFF">
                            <tspan x="61.3246352" y="33">do</tspan>
                            <tspan x="88.4666352" y="33" font-family="Figtree-Light_Regular, Figtree" font-weight="normal">Riskless</tspan>
                        </text>
                    </g>
                </g>
            </g>
        </g>
    </g>
</svg>
